2019/site/resources/flags/dark_fr_bw.svg

<?xml version="1.0" encoding="UTF-8" standalone="no"?><!DOCTYPE svg PUBLIC "-//W3C//DTD SVG 1.1//EN" "http://www.w3.org/Graphics/SVG/1.1/DTD/svg11.dtd"><svg width="100%" height="100%" viewBox="0 0 40 27" version="1.1" xmlns="http://www.w3.org/2000/svg" xmlns:xlink="http://www.w3.org/1999/xlink" xml:space="preserve" xmlns:serif="http://www.serif.com/" style="fill-rule:evenodd;clip-rule:evenodd;stroke-linejoin:round;stroke-miterlimit:2;"><path d="M36.919,0c1.459,0 2.643,1.185 2.643,2.644l0,20.962c0,1.459 -1.184,2.644 -2.643,2.644l-34.088,0c-1.459,0 -2.643,-1.185 -2.644,-2.644l0,-20.962c0.001,-1.459 1.185,-2.644 2.644,-2.644l34.088,0Z" style="fill:#37363b;"/><g id="bw"><path d="M28.134,9.838c-0.095,-0.287 -0.206,-0.574 -0.331,-0.857l-0.483,0.217c0.259,0.489 0.479,1.008 0.655,1.554l-1.738,0.571c0.558,2.65 -0.449,5.391 -2.711,7.051l1.304,1.813c3.283,-2.41 4.567,-6.543 3.304,-10.349Z" style="fill:#ededed;fill-rule:nonzero;"/><path d="M25.741,20.058c0.241,-0.181 0.477,-0.376 0.705,-0.583l-0.354,-0.397c-0.38,0.4 -0.801,0.771 -1.261,1.109l-1.074,-1.493c-2.323,1.355 -5.215,1.234 -7.476,-0.425l-1.305,1.812c3.284,2.41 7.571,2.366 10.765,-0.023Z" style="fill:#ededed;fill-rule:nonzero;"/><path d="M15.379,20.917c0.245,0.176 0.501,0.342 0.767,0.497l0.264,-0.463c-0.494,-0.242 -0.973,-0.531 -1.434,-0.868l1.074,-1.494c-1.993,-1.813 -2.774,-4.628 -1.91,-7.313l-2.11,-0.693c-1.254,3.899 0.113,8.004 3.349,10.334Z" style="fill:#ededed;fill-rule:nonzero;"/><path d="M11.368,11.228c-0.09,0.289 -0.167,0.587 -0.231,0.89l0.518,0.111c0.075,-0.549 0.198,-1.099 0.374,-1.646l1.738,0.571c1.091,-2.476 3.501,-4.095 6.296,-4.095l0,-2.241c-4.058,0 -7.501,2.581 -8.695,6.41Z" style="fill:#ededed;fill-rule:nonzero;"/><path d="M19.252,4.381c-0.301,0.003 -0.605,0.021 -0.91,0.053l0.055,0.532c0.541,-0.098 1.097,-0.149 1.666,-0.149l0,1.846c2.668,0.283 4.937,2.097 5.801,4.782l2.11,-0.692c-1.254,-3.899 -4.749,-6.409 -8.722,-6.372Z" style="fill:#ededed;fill-rule:nonzero;"/></g></svg>

<?xml version="1.0" encoding="UTF-8" standalone="no"?>
<!DOCTYPE svg PUBLIC "-//W3C//DTD SVG 1.1//EN" "http://www.w3.org/Graphics/SVG/1.1/DTD/svg11.dtd">
<svg width="100%" height="100%" viewBox="0 0 53 35" version="1.1" xmlns="http://www.w3.org/2000/svg" xmlns:xlink="http://www.w3.org/1999/xlink" xml:space="preserve" xmlns:serif="http://www.serif.com/" style="fill-rule:evenodd;clip-rule:evenodd;stroke-linejoin:round;stroke-miterlimit:2;">
    <g transform="matrix(1.33333,0,0,1.33333,0.000666667,0)">
        <path d="M36.919,0C38.378,0 39.562,1.185 39.562,2.644L39.562,23.606C39.562,25.065 38.378,26.25 36.919,26.25L2.831,26.25C1.372,26.25 0.188,25.065 0.187,23.606L0.187,2.644C0.188,1.185 1.372,0 2.831,0L36.919,0Z" style="fill:rgb(55,54,59);"/>
        <g id="bw">
            <path d="M28.134,9.838C28.039,9.551 27.928,9.264 27.803,8.981L27.32,9.198C27.579,9.687 27.799,10.206 27.975,10.752L26.237,11.323C26.795,13.973 25.788,16.714 23.526,18.374L24.83,20.187C28.113,17.777 29.397,13.644 28.134,9.838Z" style="fill:rgb(237,237,237);fill-rule:nonzero;"/>
            <path d="M25.741,20.058C25.982,19.877 26.218,19.682 26.446,19.475L26.092,19.078C25.712,19.478 25.291,19.849 24.831,20.187L23.757,18.694C21.434,20.049 18.542,19.928 16.281,18.269L14.976,20.081C18.26,22.491 22.547,22.447 25.741,20.058Z" style="fill:rgb(237,237,237);fill-rule:nonzero;"/>
            <path d="M15.379,20.917C15.624,21.093 15.88,21.259 16.146,21.414L16.41,20.951C15.916,20.709 15.437,20.42 14.976,20.083L16.05,18.589C14.057,16.776 13.276,13.961 14.14,11.276L12.03,10.583C10.776,14.482 12.143,18.587 15.379,20.917Z" style="fill:rgb(237,237,237);fill-rule:nonzero;"/>
            <path d="M11.368,11.228C11.278,11.517 11.201,11.815 11.137,12.118L11.655,12.229C11.73,11.68 11.853,11.13 12.029,10.583L13.767,11.154C14.858,8.678 17.268,7.059 20.063,7.059L20.063,4.818C16.005,4.818 12.562,7.399 11.368,11.228Z" style="fill:rgb(237,237,237);fill-rule:nonzero;"/>
            <path d="M19.252,4.381C18.951,4.384 18.647,4.402 18.342,4.434L18.397,4.966C18.938,4.868 19.494,4.817 20.063,4.817L20.063,6.663C22.731,6.946 25,8.76 25.864,11.445L27.974,10.753C26.72,6.854 23.225,4.344 19.252,4.381Z" style="fill:rgb(237,237,237);fill-rule:nonzero;"/>
        </g>
    </g>
</svg>
